X: 1
T: SHEE LA NA QUIRA -- JIG
B: Ryan's Mammoth Collection of Fiddle Tunes
R: jig
M: 6/8
L: 1/8
Z: Contributed 20000421035008 by John Chambers jcsd:world.std.com
K: G
uD \
| GBB Acc | GBB c2e | dcB Adc | BFA GDB, |
| GBB Acc | GBB c2e | dcB Adc | BGG G2 :|
|: uB \
| GBd g2d | ecc c3 | Ace a2g | fdd d3 |
| GBd g2d | ecc d2c | BGB cAd | BGG G2 :|
